X:592
T:Miss Taylor
R:Reel
C:William Marshall
B:The Athole Collection
M:C|
L:1/8
K:C
cBcd cdef|gfed cBAG|1 cEGc EcGc|dDdc cBAG:|2 cEGc dDdB c2c2||
CEGc ecGE|FAde fdBG|cege agfe|gAdc cBAG|EFGc ecGE|FAde fdBG|
geag fedc|BGdB c2c2||

